!!!OTL: 527a. Baeumlein steigen.
!!!ARE: Europa, Mitteleuropa, Deutschland, Harz; Hannover
!!!SCT: E0527
!!!TXL: @@DE
!!!YEM: Copyright 1995, estate of Helmut Schaffrath.
**kern	**text
*ICvox	*
*M4/4	*
*met(c)	*
*k[f#c#g#]	*
*A:	*
!LO:TX:a:t=Heiter.	!
!LO:TX:a:t=Aus der Harʒgegend. 1855. Wenig anders aus Hannover. 1860.	!
{4a	Jch
=1	=1
4e	wollt
4e	ein
4e	Bäumlein
4a	.
=2	=2
2f#	ſtei-
4f#}	-gen,
{4a	das
=3	=3
4g#	nicht
4a	ʒu
4b/	ſtei-
4g#	-gen
=4	=4
2a	war.
4r}	.
{8aL	Da
8bJ	.
=5	=5
4cc#	bra-
4cc#	-chen
4cc#	al-
8ddL	-le
8cc#J	.
=6	=6
4b	Ae-
4b	-ſti-
4b}	-chen,
{4b	da
=7	=7
4a	bra-
4a	-chen
4a	al-
8bL	-le
8aJ	.
=8	=8
4g#	Ae-
8g#L	-ſti-
8f#J	.
4e}	-chen,
{4e	und
=9	=9
4a	ich
4a	fiel
4b	in
4b	das
=10	=10
(4.cc#	Gras,
8dd	.
4ee)}	.
{4dd	und
=11	=11
4cc#	ich
4cc#	fiel
4b	in
4b	das
=12	=12
2a	Gras.
4r}	.
==	==
!!!AGN: Liebes - Lied
!!!ONB: ESAC (Essen Associative Code) Database: ERK1
!!!AMT: simple quadruple
!!!AIN: vox
!!!EED: Helmut Schaffrath
!!!EEV: 1.0
!!!GTL: Liebeslieder [Neuere (aus dem 18. bis 19. Jahrh.) - Liebeslust]
!!!URL-scan: https://rosdok.uni-rostock.de/mcrviewer/recordIdentifier/rosdok_ppn745177662/iview2/phys_0354.iview2?x=-495.639162561577&y=112.11337758926675&scale=0.46294184720638526&rotation=0&layout=singlePageLayout
!!!ENC: Anna Maria Matuszewska
!!!EEV: 2024/10/12
*-	*-
